public/svg/black/bos.svg

<svg xmlns="http://www.w3.org/2000/svg" width="32" height="32" viewBox="0 0 32 32"><path fill-rule="evenodd" d="M16,32 C7.163444,32 0,24.836556 0,16 C0,7.163444 7.163444,0 16,0 C24.836556,0 32,7.163444 32,16 C32,24.836556 24.836556,32 16,32 Z M14.4318182,18.9508197 L17.0909091,18.9508197 C21.030303,18.9508197 23,17.8688525 23,15.704918 L23,10.2459016 C23,8.08196721 21.030303,7 17.0909091,7 L10,7 L10,12.0163934 L12.6590909,12.0163934 L12.6590909,8.91803279 L17.3863636,8.91803279 C19.3560606,8.91803279 20.3409091,9.40983607 20.3409091,10.3934426 L20.3409091,15.557377 C20.3409091,16.5409836 19.3560606,17.0327869 17.3863636,17.0327869 L14.4318182,17.0327869 L14.4318182,18.9508197 Z M20.3409091,20.1311475 L20.3409091,21.6065574 C20.3409091,22.5901639 19.3560606,23.0819672 17.3863636,23.0819672 L14.4318182,23.0819672 L12.6590909,23.0819672 L12.6590909,15.4098361 L17.3863636,15.4098361 C17.7080939,15.4098361 18.0035484,15.4229574 18.2727273,15.4491999 L18.2727273,13.5279809 C17.9007414,13.5038625 17.506802,13.4918033 17.0909091,13.4918033 L10,13.4918033 L10,25 L17.0909091,25 C21.030303,25 23,23.9180328 23,21.7540984 L23,20.1311475 L20.3409091,20.1311475 Z"/></svg>

<svg xmlns="http://www.w3.org/2000/svg" width="32" height="32" viewBox="0 0 32 32"><path fill-rule="evenodd" d="M16 32C7.163 32 0 24.837 0 16S7.163 0 16 0s16 7.163 16 16-7.163 16-16 16zm-1.568-13.05h2.659c3.94 0 5.909-1.081 5.909-3.245v-5.46C23 8.083 21.03 7 17.09 7H10v5.016h2.66V8.918h4.726c1.97 0 2.955.492 2.955 1.475v5.164c0 .984-.985 1.476-2.955 1.476h-2.954v1.918zm5.909 1.181v1.476c0 .983-.985 1.475-2.955 1.475H12.66V15.41h4.727c.322 0 .618.013.887.04v-1.922a18.301 18.301 0 00-1.182-.036H10V25h7.09c3.94 0 5.91-1.082 5.91-3.246v-1.623h-2.66z"/></svg>
